!!!COM: Fe/licien David
!!!CNT: Francais
!!!TXO: Francais
!!!OTL: La Chanson du Pecheur
!!!LYR: The/ophile Gautier
!!!ENC: Jacob Pegg
!!!YOR: Romantic French Song 1830-1870, David Tunley, ed., New York: Garland Publishing, Inc., 1995
!!!ODT: 1843/
!!NB: Vocal melody and text only encoded.
!!NB: Only first strophe encoded.
**kern	**silbe
*clef G2	*
*k[b-e-]	*
*M6/8	*
=1	=1
2.r	.
=2	=2
4r	.
8r	.
4r	.
{8g	{Ma
=3	=3
4dd	bel-
8dd	-le
4dd	ami-
8dd	-e est
=4	=4
(4ff	mor-
8ee-)	|
4.dd	-te,
=5	=5
8r	.
8dd	Je
8cc	pleur-
8dd	-er-
8a	-ai
8b-	tou-
=6	=6
4.g}	-jours,}
4r	.
{8g	{Sous
=7	=7
4dd	la
8dd	tombe el-
4dd	-le
8dd	em-
=8	=8
(4ff	-por-
8ee-)	|
4.dd	-te
=9	=9
8r	.
8dd	Mon
8cc	a^me
8dd	et
8a	mes
8b-	a-
=10	=10
4.g}	-mours.}
4r	.
{8g	{Dans
=11	=11
4g	le
8a	ciel
4b-	sans
8cc	mat-
=12	=12
(4dd	-ten-
8b-)	|
4g	-dre
8g	El
=13	=13
4ee-	-le
8ee-	s'en-
4cc	-re-
8cc	-tour-
=14	=14
4.dd}	-na,}
8r	.
4r	.
=15	=15
{4dd	{L'an-
8dd	-ge
8dd	qui
8cc	l'em-
8b-	-me-
=16	=16
[4.a	-na
4a]	|
8b-	Ne
=17	=17
4a	vou-
8b-	-lut
4g	pas
8a	me
=18	=18
(4f;	pren-
16en	|
16d)	|
4d;}	dre.}
8r	.
=19	=19
{4dd	{Ah!
8dd	quel
8dd	cha-
8.ff	-grin
16ee-	a-
=20	=20
[2.dd	-mer!
=21	=21
2.dd]}	|}
=22	=22
{[4.b-	{Ah!
8b-]	|
8cc	sans
(ccq	a-
8dd)	|
=23	=23
[2.dd	-mour
=24	=24
4.dd]}	|}
8r	.
{8g	{s'en
8a	al-
=25	=25
[4.b-	-ler
8b-]	|
8.a	sur
16g	la
=26	=26
[2.g	mer!
=27	=27
4.g]}	|}
4r	.
8r	.
*-	*-
